src/lib/packages/icons/src/assets/filled/instagram.svg

<svg width="24" height="24" viewBox="0 0 24 24" fill="none" xmlns="http://www.w3.org/2000/svg">
<path d="M20.94 8.29C20.87 6.85 20.54 5.57001 19.49 4.52001C18.44 3.47001 17.16 3.14001 15.72 3.07001C14.23 2.99001 9.78002 2.99001 8.30002 3.07001C6.86002 3.14001 5.59003 3.47001 4.53003 4.52001C3.47003 5.57001 3.15002 6.85 3.08002 8.29C3.00002 9.78 3.00002 14.23 3.08002 15.72C3.15002 17.16 3.48003 18.44 4.53003 19.49C5.59003 20.54 6.86002 20.87 8.30002 20.94C9.79002 21.02 14.24 21.02 15.72 20.94C17.16 20.87 18.44 20.54 19.49 19.49C20.54 18.44 20.87 17.16 20.94 15.72C21.02 14.23 21.02 9.78001 20.94 8.30001V8.29ZM12 16.75C9.38003 16.75 7.25003 14.62 7.25003 12C7.25003 9.38 9.38003 7.25 12 7.25C14.62 7.25 16.75 9.38 16.75 12C16.75 14.62 14.62 16.75 12 16.75ZM17.52 7.5C16.97 7.5 16.52 7.05 16.52 6.5C16.52 5.95 16.96 5.5 17.52 5.5C18.07 5.5 18.52 5.95 18.52 6.5C18.52 7.05 18.07 7.5 17.52 7.5ZM15.25 12C15.25 13.79 13.79 15.25 12 15.25C10.21 15.25 8.75003 13.79 8.75003 12C8.75003 10.21 10.21 8.75 12 8.75C13.79 8.75 15.25 10.21 15.25 12Z" fill="currentColor"/>
</svg>

<svg xmlns="http://www.w3.org/2000/svg" width="24" height="24" fill="none"><path fill="currentColor" d="M20.94 8.29c-.07-1.44-.4-2.72-1.45-3.77-1.05-1.05-2.33-1.38-3.77-1.45-1.49-.08-5.94-.08-7.42 0-1.44.07-2.71.4-3.77 1.45-1.06 1.05-1.38 2.33-1.45 3.77-.08 1.49-.08 5.94 0 7.43.07 1.44.4 2.72 1.45 3.77 1.06 1.05 2.33 1.38 3.77 1.45 1.49.08 5.94.08 7.42 0 1.44-.07 2.72-.4 3.77-1.45 1.05-1.05 1.38-2.33 1.45-3.77.08-1.49.08-5.94 0-7.42v-.01ZM12 16.75c-2.62 0-4.75-2.13-4.75-4.75S9.38 7.25 12 7.25s4.75 2.13 4.75 4.75-2.13 4.75-4.75 4.75Zm5.52-9.25c-.55 0-1-.45-1-1s.44-1 1-1c.55 0 1 .45 1 1s-.45 1-1 1ZM15.25 12c0 1.79-1.46 3.25-3.25 3.25S8.75 13.79 8.75 12 10.21 8.75 12 8.75s3.25 1.46 3.25 3.25Z"/></svg>
